X:1
T:Di Zilberne Kasene
T:Silver Wedding, The
R:frailach
O:Klezmer
Z:id:hn-frailach-1
M:4/4
L:1/8
Q:1/4=140
K:Dm
A de | f4 zA de | ff3 zA de | f2 ed ee d^c | a4 zA ^cd |
e4 zA ^cd | ee3 zA ^cd | e2 g2 fe f/e/d |
[1 ^c/d/e d/^c/B A :|2 ^c/d/e d/^c/B A2 z2 ||
|: AB ^cd ef ga | b8 | a8 | g8 | f8 | eA ^ce dz z2 |
eA ^ce dz ef | g/f/e f/e/d e/d/^c d/^c/B | A8 :|
|: ^c/d/e d/^c/B AB ^c2- | ^cA ^ce d^c BA  | ^c/d/e d/^c/B AB ^cz |
e/d/^c d/^c/B A2 z2 :| 

